www/assets/icons/clean_hands.svg

<svg xmlns="http://www.w3.org/2000/svg" width="24" height="24" viewBox="0 0 24 24" fill='currentColor'><path d="m17.49 5 .63 1.37 1.37.63-1.37.63L17.49 9l-.63-1.37L15.49 7l1.37-.63zM11.5 6.13V4h2c.57 0 1.1.17 1.55.45l1.43-1.43A4.9 4.9 0 0 0 13.5 2H8v2h1.5v2.14A5.01 5.01 0 0 0 5.76 9.5h3.98l5.76 2.15v-.62a5 5 0 0 0-4-4.9M1.5 22h4V11h-4zm19-5h-7l-2.09-.73.33-.94 1.76.67h2.82c.65 0 1.18-.53 1.18-1.18 0-.49-.31-.93-.77-1.11L9.47 11H7.5v9.02l7 1.98 8-3c-.01-1.1-.89-2-2-2m0-3c1.1 0 2-.9 2-2s-2-4-2-4-2 2.9-2 4 .9 2 2 2"/></svg>

<svg width="24" height="24" viewBox="0 0 24 24" xmlns="http://www.w3.org/2000/svg" fill='currentColor'><path d="M17.49 5L18.12 6.37L19.49 7L18.12 7.63L17.49 9L16.86 7.63L15.49 7L16.86 6.37L17.49 5ZM11.5 6.13V4H13.5C14.07 4 14.6 4.17 15.05 4.45L16.48 3.02C15.65 2.39 14.63 2 13.5 2C12.02 2 8 2 8 2V4H9.5V6.14C7.73 6.51 6.31 7.8 5.76 9.5H9.74L15.5 11.65V11.03C15.5 8.61 13.78 6.59 11.5 6.13ZM1.5 22H5.5V11H1.5V22ZM20.5 17H13.5L11.41 16.27L11.74 15.33L13.5 16H16.32C16.97 16 17.5 15.47 17.5 14.82C17.5 14.33 17.19 13.89 16.73 13.71L9.47 11H7.5V20.02L14.5 22L22.5 19C22.49 17.9 21.61 17 20.5 17ZM20.5 14C21.6 14 22.5 13.1 22.5 12C22.5 10.9 20.5 8 20.5 8C20.5 8 18.5 10.9 18.5 12C18.5 13.1 19.4 14 20.5 14Z"/></svg>
